.files/icons/devices/Gamepad#2.svg

<svg fill="none" height="48" viewBox="0 0 52 48" width="52" xmlns="http://www.w3.org/2000/svg"><g fill="#000"><path d="m27.8974 16.6325-3.7948-1.265c1.5295-4.5882 3.9828-7.45039 7.4123-8.30779 1.7857-.44641 4.4851-3.32069 4.4851-5.05971h4c0 3.59431-3.9672 8.0534-7.5149 8.9403-1.9038.4759-3.4505 2.2804-4.5877 5.6922z" opacity=".3"/><path clip-rule="evenodd" d="m17.4966 12.0415c-1.4349-.8285-3.2697-.3368-4.0981 1.098l-12.0755 20.9154c-.828432 1.4349-.336807 3.2697 1.09807 4.0981l10.63803 6.1419c1.4349.8284 3.2697.3368 4.0981-1.0981l5.3098-9.1969h7.3795l5.3135 9.2032c.8284 1.4349 2.6632 1.9265 4.0981 1.0981l10.4072-6.0087c1.4349-.8284 1.9265-2.6632 1.0981-4.0981l-12.1053-20.9669c-.8284-1.4349-2.6632-1.9266-4.0981-1.0981l-3.2399 1.8705h-10.4313zm4.5034 11.9584c0 2.2092-1.7909 4-4 4s-4-1.7908-4-4c0-2.2091 1.7909-4 4-4s4 1.7909 4 4zm14 0c1.1046 0 2-.8954 2-2 0-1.1045-.8954-2-2-2s-2 .8955-2 2c0 1.1046.8954 2 2 2zm-2 2c0 1.1046-.8954 2-2 2s-2-.8954-2-2c0-1.1045.8954-2 2-2s2 .8955 2 2z" fill-rule="evenodd"/></g></svg>

<svg width="52" height="48" viewBox="0 0 52 48" fill="none" xmlns="http://www.w3.org/2000/svg">
<path opacity="0.3" d="M27.8974 16.6325L24.1026 15.3675C25.6321 10.7793 28.0854 7.91711 31.5149 7.05971C33.3006 6.6133 36 3.73902 36 2H40C40 5.59431 36.0328 10.0534 32.4851 10.9403C30.5813 11.4162 29.0346 13.2207 27.8974 16.6325Z" fill="black"/>
<path fill-rule="evenodd" clip-rule="evenodd" d="M17.4966 12.0415C16.0617 11.213 14.2269 11.7047 13.3985 13.1395L1.323 34.0549C0.494568 35.4898 0.986193 37.3246 2.42107 38.153L13.0591 44.2949C14.494 45.1233 16.3288 44.6317 17.1572 43.1968L22.467 33.9999H29.8465L35.16 43.2031C35.9884 44.638 37.8232 45.1296 39.2581 44.3012L49.6653 38.2925C51.1002 37.4641 51.5918 35.6293 50.7634 34.1944L38.6581 13.2275C37.8297 11.7926 35.9949 11.3009 34.56 12.1294L31.3201 13.9999H20.8888L17.4966 12.0415ZM22 23.9999C22 26.2091 20.2091 27.9999 18 27.9999C15.7909 27.9999 14 26.2091 14 23.9999C14 21.7908 15.7909 19.9999 18 19.9999C20.2091 19.9999 22 21.7908 22 23.9999ZM36 23.9999C37.1046 23.9999 38 23.1045 38 21.9999C38 20.8954 37.1046 19.9999 36 19.9999C34.8954 19.9999 34 20.8954 34 21.9999C34 23.1045 34.8954 23.9999 36 23.9999ZM34 25.9999C34 27.1045 33.1046 27.9999 32 27.9999C30.8954 27.9999 30 27.1045 30 25.9999C30 24.8954 30.8954 23.9999 32 23.9999C33.1046 23.9999 34 24.8954 34 25.9999Z" fill="black"/>
</svg>
